images/possibilities-icon-1.svg

<svg width="60" height="60" viewBox="0 0 60 60" fill="none" xmlns="http://www.w3.org/2000/svg">
<g clip-path="url(#clip0_2129_11763)">
<path d="M36.4561 20.9298C39.6705 24.8431 40.3544 30.198 38.5762 34.7292C29.1383 34.5919 21.4785 26.9027 21.4785 17.3598C21.4785 17.0852 21.4785 16.8106 21.4785 16.5359C26.6762 14.8196 32.6946 16.33 36.4561 20.9298Z" fill="url(#paint0_linear_2129_11763)"/>
<path d="M15.1179 38.3676C14.5024 37.6124 13.9553 36.7886 13.5449 35.8961C13.9553 35.8274 14.434 35.7588 14.9127 35.7588C19.153 35.7588 22.7093 38.9855 23.1196 43.1734C20.1104 42.6242 17.238 40.9765 15.1179 38.3676Z" fill="url(#paint1_linear_2129_11763)"/>
<path d="M56.085 17.3596C56.085 23.8817 52.4602 29.6486 47.1258 32.6007C48.0148 26.1473 45.9631 19.2819 41.039 14.3389C36.4568 9.73906 30.2332 7.61079 24.2148 8.02272C27.2924 3.21696 32.6953 -0.00976562 38.7821 -0.00976562C48.3568 -0.00976563 56.085 7.81676 56.085 17.3596Z" fill="url(#paint2_linear_2129_11763)"/>
<path d="M20.1107 50.589C18.6745 51.7561 16.828 52.4426 14.8446 52.4426C10.2624 52.4426 6.56934 48.7353 6.56934 44.1355C6.56934 42.9684 6.8429 41.8013 7.25324 40.7715C7.86876 41.8013 8.55267 42.7624 9.30497 43.6549C12.3142 47.2249 16.0757 49.4905 20.1107 50.589Z" fill="url(#paint3_linear_2129_11763)"/>
<g filter="url(#filter0_b_2129_11763)">
<path d="M41.0385 14.3393C32.2844 5.55158 17.7856 5.89486 9.44192 15.4377C2.46606 23.4702 2.39766 35.6219 9.30514 43.6544C16.0758 51.5496 27.0184 53.3346 35.6356 48.8721C36.7299 48.3228 38.0977 48.5288 38.9867 49.4213L48.4247 58.8955C49.5189 59.994 51.3655 59.994 52.5281 58.8955L54.9218 56.4926C56.0161 55.3942 56.0161 53.5405 54.9218 52.3734L45.4839 42.9679C44.5948 42.0754 44.3896 40.7023 44.9367 39.6038C49.177 31.434 47.8775 21.2046 41.0385 14.3393ZM36.4563 38.3681C30.9166 45.1648 20.658 45.1648 15.1184 38.3681C11.0149 33.3563 11.0149 25.9417 15.1184 20.93C20.658 14.1333 30.9166 14.1333 36.4563 20.93C40.5597 25.9417 40.5597 33.3563 36.4563 38.3681Z" fill="url(#paint4_linear_2129_11763)" fill-opacity="0.1"/>
<path d="M41.0385 14.3393C32.2844 5.55158 17.7856 5.89486 9.44192 15.4377C2.46606 23.4702 2.39766 35.6219 9.30514 43.6544C16.0758 51.5496 27.0184 53.3346 35.6356 48.8721C36.7299 48.3228 38.0977 48.5288 38.9867 49.4213L48.4247 58.8955C49.5189 59.994 51.3655 59.994 52.5281 58.8955L54.9218 56.4926C56.0161 55.3942 56.0161 53.5405 54.9218 52.3734L45.4839 42.9679C44.5948 42.0754 44.3896 40.7023 44.9367 39.6038C49.177 31.434 47.8775 21.2046 41.0385 14.3393ZM36.4563 38.3681C30.9166 45.1648 20.658 45.1648 15.1184 38.3681C11.0149 33.3563 11.0149 25.9417 15.1184 20.93C20.658 14.1333 30.9166 14.1333 36.4563 20.93C40.5597 25.9417 40.5597 33.3563 36.4563 38.3681Z" stroke="url(#paint5_linear_2129_11763)" stroke-width="0.833333" stroke-miterlimit="10" stroke-linecap="round" stroke-linejoin="round"/>
</g>
</g>
<defs>
<filter id="filter0_b_2129_11763" x="-6.24951" y="-2.41309" width="72.4087" height="72.5488" filterUnits="userSpaceOnUse" color-interpolation-filters="sRGB">
<feFlood flood-opacity="0" result="BackgroundImageFix"/>
<feGaussianBlur in="BackgroundImageFix" stdDeviation="5"/>
<feComposite in2="SourceAlpha" operator="in" result="effect1_backgroundBlur_2129_11763"/>
<feBlend mode="normal" in="SourceGraphic" in2="effect1_backgroundBlur_2129_11763" result="shape"/>
</filter>
<linearGradient id="paint0_linear_2129_11763" x1="37.1668" y1="35.5712" x2="24.9687" y2="14.5244" gradientUnits="userSpaceOnUse">
<stop stop-color="#02F7EA"/>
<stop offset="1" stop-color="#BCE1FF"/>
</linearGradient>
<linearGradient id="paint1_linear_2129_11763" x1="21.3629" y1="44.2028" x2="15.7977" y2="34.6004" gradientUnits="userSpaceOnUse">
<stop stop-color="#02F7EA"/>
<stop offset="1" stop-color="#D4E6FF"/>
</linearGradient>
<linearGradient id="paint2_linear_2129_11763" x1="51.4915" y1="30.1015" x2="34.0813" y2="0.0615432" gradientUnits="userSpaceOnUse">
<stop stop-color="#02F7EA"/>
<stop offset="1" stop-color="#BCE1FF"/>
</linearGradient>
<linearGradient id="paint3_linear_2129_11763" x1="16.0068" y1="53.0867" x2="8.4821" y2="40.1035" gradientUnits="userSpaceOnUse">
<stop stop-color="#02F7EA"/>
<stop offset="1" stop-color="#D4E6FF"/>
</linearGradient>
<linearGradient id="paint4_linear_2129_11763" x1="29.9547" y1="8.00391" x2="60.0003" y2="60.001" gradientUnits="userSpaceOnUse">
<stop stop-color="white"/>
<stop offset="1" stop-color="#02F7EA"/>
</linearGradient>
<linearGradient id="paint5_linear_2129_11763" x1="29.9547" y1="8.00391" x2="29.9547" y2="59.7194" gradientUnits="userSpaceOnUse">
<stop stop-color="#D7E0FF"/>
<stop offset="1" stop-color="white" stop-opacity="0"/>
</linearGradient>
<clipPath id="clip0_2129_11763">
<rect width="60" height="60" fill="white"/>
</clipPath>
</defs>
</svg>

<svg width="60" height="60" fill="none" xmlns="http://www.w3.org/2000/svg"><g clip-path="url(#clip0_2129_11763)"><path d="M36.456 20.93c3.214 3.913 3.898 9.268 2.12 13.8-9.438-.138-17.098-7.827-17.098-17.37v-.824a13.77 13.77 0 0114.978 4.394z" fill="url(#paint0_linear_2129_11763)"/><path d="M15.118 38.368c-.616-.756-1.163-1.58-1.573-2.472.41-.069.889-.137 1.368-.137 4.24 0 7.796 3.227 8.207 7.414-3.01-.549-5.882-2.197-8.002-4.805z" fill="url(#paint1_linear_2129_11763)"/><path d="M56.085 17.36a17.457 17.457 0 01-8.96 15.24c.89-6.453-1.162-13.318-6.086-18.261-4.582-4.6-10.806-6.728-16.824-6.316C27.292 3.217 32.695-.01 38.782-.01c9.575 0 17.303 7.827 17.303 17.37z" fill="url(#paint2_linear_2129_11763)"/><path d="M20.11 50.589a8.338 8.338 0 01-5.265 1.854c-4.583 0-8.276-3.708-8.276-8.307 0-1.168.274-2.335.684-3.364.616 1.03 1.3 1.99 2.052 2.883 3.01 3.57 6.77 5.835 10.806 6.934z" fill="url(#paint3_linear_2129_11763)"/><g filter="url(#filter0_b_2129_11763)"><path d="M41.038 14.34c-8.754-8.788-23.252-8.445-31.596 1.098-6.976 8.032-7.044 20.184-.137 28.216 6.77 7.896 17.713 9.68 26.33 5.218a2.913 2.913 0 013.352.55l9.438 9.474c1.094 1.098 2.94 1.098 4.103 0l2.394-2.403c1.094-1.099 1.094-2.953 0-4.12l-9.438-9.405a2.941 2.941 0 01-.547-3.364 21.63 21.63 0 00-3.898-25.265zm-4.582 24.028a13.714 13.714 0 01-21.338 0c-4.103-5.012-4.103-12.426 0-17.438a13.714 13.714 0 0121.338 0c4.104 5.012 4.104 12.426 0 17.438z" fill="url(#paint4_linear_2129_11763)" fill-opacity=".1"/><path d="M41.038 14.34c-8.754-8.788-23.252-8.445-31.596 1.098-6.976 8.032-7.044 20.184-.137 28.216 6.77 7.896 17.713 9.68 26.33 5.218a2.913 2.913 0 013.352.55l9.438 9.474c1.094 1.098 2.94 1.098 4.103 0l2.394-2.403c1.094-1.099 1.094-2.953 0-4.12l-9.438-9.405a2.941 2.941 0 01-.547-3.364 21.63 21.63 0 00-3.898-25.265zm-4.582 24.028a13.714 13.714 0 01-21.338 0c-4.103-5.012-4.103-12.426 0-17.438a13.714 13.714 0 0121.338 0c4.104 5.012 4.104 12.426 0 17.438z" stroke="url(#paint5_linear_2129_11763)" stroke-width=".833" stroke-miterlimit="10" stroke-linecap="round" stroke-linejoin="round"/></g></g><defs><linearGradient id="paint0_linear_2129_11763" x1="37.167" y1="35.571" x2="24.969" y2="14.524" gradientUnits="userSpaceOnUse"><stop stop-color="#02F7EA"/><stop offset="1" stop-color="#BCE1FF"/></linearGradient><linearGradient id="paint1_linear_2129_11763" x1="21.363" y1="44.203" x2="15.798" y2="34.6" gradientUnits="userSpaceOnUse"><stop stop-color="#02F7EA"/><stop offset="1" stop-color="#D4E6FF"/></linearGradient><linearGradient id="paint2_linear_2129_11763" x1="51.492" y1="30.102" x2="34.081" y2=".062" gradientUnits="userSpaceOnUse"><stop stop-color="#02F7EA"/><stop offset="1" stop-color="#BCE1FF"/></linearGradient><linearGradient id="paint3_linear_2129_11763" x1="16.007" y1="53.087" x2="8.482" y2="40.103" gradientUnits="userSpaceOnUse"><stop stop-color="#02F7EA"/><stop offset="1" stop-color="#D4E6FF"/></linearGradient><linearGradient id="paint4_linear_2129_11763" x1="29.955" y1="8.004" x2="60" y2="60.001" gradientUnits="userSpaceOnUse"><stop stop-color="#fff"/><stop offset="1" stop-color="#02F7EA"/></linearGradient><linearGradient id="paint5_linear_2129_11763" x1="29.955" y1="8.004" x2="29.955" y2="59.719" gradientUnits="userSpaceOnUse"><stop stop-color="#D7E0FF"/><stop offset="1" stop-color="#fff" stop-opacity="0"/></linearGradient><clipPath id="clip0_2129_11763"><path fill="#fff" d="M0 0h60v60H0z"/></clipPath><filter id="filter0_b_2129_11763" x="-6.25" y="-2.413" width="72.409" height="72.549" filterUnits="userSpaceOnUse" color-interpolation-filters="sRGB"><feFlood flood-opacity="0" result="BackgroundImageFix"/><feGaussianBlur in="BackgroundImageFix" stdDeviation="5"/><feComposite in2="SourceAlpha" operator="in" result="effect1_backgroundBlur_2129_11763"/><feBlend in="SourceGraphic" in2="effect1_backgroundBlur_2129_11763" result="shape"/></filter></defs></svg>
